teeny/outline/eslint.svg

<svg width="15" height="15" viewBox="0 0 15 15" fill="none" xmlns="http://www.w3.org/2000/svg">
<path d="M0.5 7.5L0.0527864 7.27639C-0.0175955 7.41716 -0.0175955 7.58284 0.0527864 7.72361L0.5 7.5ZM3.5 1.5V1C3.31061 1 3.13748 1.107 3.05279 1.27639L3.5 1.5ZM11.5 1.5L11.9472 1.27639C11.8625 1.107 11.6894 1 11.5 1V1.5ZM14.5 7.5L14.9472 7.72361C15.0176 7.58284 15.0176 7.41716 14.9472 7.27639L14.5 7.5ZM11.5 13.5V14C11.6894 14 11.8625 13.893 11.9472 13.7236L11.5 13.5ZM3.5 13.5L3.05279 13.7236C3.13748 13.893 3.31061 14 3.5 14V13.5ZM7.5 4L7.77735 3.58397L7.5 3.39907L7.22265 3.58397L7.5 4ZM4.5 6L4.22265 5.58397L4 5.73241V6H4.5ZM4.5 9H4V9.26759L4.22265 9.41603L4.5 9ZM7.5 11L7.22265 11.416L7.5 11.6009L7.77735 11.416L7.5 11ZM10.5 9L10.7774 9.41603L11 9.26759V9H10.5ZM10.5 6H11V5.73241L10.7774 5.58397L10.5 6ZM0.947214 7.72361L3.94721 1.72361L3.05279 1.27639L0.0527864 7.27639L0.947214 7.72361ZM3.5 2H11.5V1H3.5V2ZM11.0528 1.72361L14.0528 7.72361L14.9472 7.27639L11.9472 1.27639L11.0528 1.72361ZM14.0528 7.27639L11.0528 13.2764L11.9472 13.7236L14.9472 7.72361L14.0528 7.27639ZM11.5 13H3.5V14H11.5V13ZM3.94721 13.2764L0.947214 7.27639L0.0527864 7.72361L3.05279 13.7236L3.94721 13.2764ZM7.22265 3.58397L4.22265 5.58397L4.77735 6.41603L7.77735 4.41603L7.22265 3.58397ZM4 6V9H5V6H4ZM4.22265 9.41603L7.22265 11.416L7.77735 10.584L4.77735 8.58397L4.22265 9.41603ZM7.77735 11.416L10.7774 9.41603L10.2226 8.58397L7.22265 10.584L7.77735 11.416ZM11 9V6H10V9H11ZM10.7774 5.58397L7.77735 3.58397L7.22265 4.41603L10.2226 6.41603L10.7774 5.58397Z" fill="black"/>
</svg>

<svg viewBox="0 0 15 15" xmlns="http://www.w3.org/2000/svg"><path d="M.5 7.5l-.45-.23c-.08.14-.08.3 0 .44l.44-.23Zm3-6V1c-.19 0-.37.1-.45.27l.44.22Zm8 0l.44-.23c-.09-.17-.26-.28-.45-.28v.5Zm3 6l.44.22c.07-.15.07-.31 0-.45l-.45.22Zm-3 6v.5c.18 0 .36-.11.44-.28l-.45-.23Zm-8 0l-.45.22c.08.16.25.27.44.27v-.5Zm4-9.5l.27-.42 -.28-.19 -.28.18 .27.41Zm-3 2l-.28-.42 -.23.14v.26h.5Zm0 3H4v.26l.22.14 .27-.42Zm3 2l-.28.41 .27.18 .27-.19 -.28-.42Zm3-2l.27.41 .22-.15v-.27h-.5Zm0-3h.5v-.27l-.23-.15 -.28.41ZM.94 7.72l2.99-6 -.9-.45 -3.01 6 .89.44Zm2.55-5.73h8v-1h-8v1Zm7.55-.28l3 6 .89-.45 -3-6 -.9.44Zm3 5.55l-3 6 .89.44 3-6 -.9-.45Zm-2.56 5.72h-8v1h8v-1Zm-7.56.27l-3-6.01 -.9.44 3 5.99 .89-.45Zm3.27-9.7l-3 2 .55.83 3-2 -.56-.84ZM3.96 5.96v3h1v-3h-1Zm.22 3.41l3 1.99 .55-.84 -3-2.01 -.56.83Zm3.55 1.99l3-2 -.56-.84 -3 2 .55.83Zm3.22-2.42v-3h-1v3h1Zm-.23-3.42l-3.01-2 -.56.83 2.99 2 .55-.84Z"/></svg>
